X:506
T: Jiaota shuiche kouchang ge
N: C1925
O: China, Hubei Zaoyang
S: I, 393]
R: Haozi, Tiange, Cheshuiluogu]
M: 2/4
L: 1/16
K: G
eeeee2z2 | G2GAe4 | efede4 | efedA4
eeeee2z2 | e2BAA2G2
ee2eeeed | egBABAG2
eeeee2dd | egedBAG2
eeeee2z2 | A2ABe4 | efede4 | efedA4
ee2ee2dd | d2deB2A2
eee2eeee | d2BABAG2
ee2de2de | d2B2d2A2
eeeee2z2 | A2ABe4 | efede4 | efedA4

